X: 1813
T: I Wont Be A Nun
M:C
L:1/8
B:O'Neill's 1813
N:"collected by F. O'Neill"
Z:"Transcribed by Bob Safranek, rjs@gsp.org"
K:G
(G>A) | Bdg>a g2    fe     | dBB>c B2 AG | Bdce dBGB | A2 A>B A2 G>A |
        Bdg>a g>a b/a/g/f/ | edB>c B2 AG | Bdge dBAB | G2 G>A G2     ||
(fg)  | afd>f d2    ga     | bge>f e2 ga | (Tbg) (Taf) (Tge) (Tfd) |\
(TBA)AB A2 G>A |
        Bdg>a g>a b/a/g/f/ | edB>c B2 AG | Bdge dBAB | G2 G>A G2     ||
(ab)  | c'baf    gedc      | B(G/B/) d(B/d/) g2 (ab) | c'baf gedB |\
(TBA)AB A2 G>A |
        Bdg>a g>a b/a/g/f/ | edB>c B2 AG | Bdge dBAB | G2 G>A G2     |]


